X:1
T:James Gibb editions
T:Tibi laus - Lasso
T:#
%%score [ 1 2 3 4 ]
L:1/8
Q:1/4=48
M:4/4
K:Eb
V:1 treble nm="Soprano" snm="S"
V:2 treble nm="Alto" snm="A"
V:3 treble-8 nm="Tenor" snm="T"
V:4 bass nm="Bass" snm="B"
V:1
"^Orlando di Lasso\n(1532-96)""^Tibi laus""^largo"!mf!!<(! c8!<)! |!>(! c8!>)! | =B8 | %3
w: Ti-|bi|laus|
 z2!f! (c3 B A2) |"^," G2 (B3 A A2- |[M:4/4]!>(! A2 G2 A4!>)! | z2!mf! !>!c4!<(! B2 | %7
w: ti\- * *|bi glo\- * *|* ri- a,|ti- bi|
 B4!<)! A2 (G2- |"^," GF/E/ F2) G3 A | B8) |!>(! A3 A G4!>)! | z2!p! G2 B2 =A2 | %12
w: gra- ti- a\-|* * * * rum *||ac- ti- o|in sae- cu-|
"^,"!<(! B4!<)! B4 | c2 _A2 G4 | z2!f! F2 A2 G2 |"^," A2 c2 c2 (C2- |"^," CDEF!>(! G4) | %17
w: la, in|sae- cu- la,|in sae- cu-|la sae- cu- lo\-||
 G4!>)! z2!p! G2- | G2!<(! G2 G4!<)! |"^," A2 A4 A2 | A4 z2!mf! !>!A2- | A2 !>!G4 !>!F2- | %22
w: rum, O|* be- a-|ta Tri- ni-|tas, O|* be- a\-|
 F2"^," E2 (D3 E | F2) F2 G4- | G4 z2!f! A2- |"^," A2 !>!B4 A2- | A2"^,"!>(! G4 (F2-!>)! | %27
w: * ta Tri\- *|* ni- tas,|* O|* be- a\-|* ta Tri\-|
"^rit."[Q:1/4=46] F2[Q:1/4=45] =E[Q:1/4=44]D[Q:1/4=42] E2)[Q:1/4=40] E2 | %28
w: * * * * ni\-|
!p![Q:1/4=40] !fermata!F8 |] %29
w: tas.|
V:2
!mf! (F4 A4) | G8 | G4 z2!f! !>!G2- | G2"^," G2 (C3 D | EFGE F4 |[M:4/4]!>(! E3 E E4!>)! | %6
w: Ti\- *|bi|laus ti\-|* bi glo\- *||* ri- a,|
!mf! (A4!<(! G4)!<)! |"^," F2 G2 F2 E2- |"^," E2 DC EDEF | G2)"^," G2 F2 E2 | F4 z4 | %11
w: ti\- *|bi gra- ti- a\-||* rum ac- ti-|o|
 z2!p! C2 G2 F2 |"^,"!<(! G2 G2!<)! F2 G2 | E4 z4 | z2!f! F2 C2 B,2 |"^," C4 A4 | %16
w: in sae- cu-|la, sae- cu- lo-|rum,|in sae- cu-|la sae-|
 G2"^," (C3 D!>(! E2) | D8!>)! |!p! E4!<(! D4 | E4!<)!"^," F2!f! F2- | F2 F2 E4 |!mf! E6 C2 | %22
w: cu- lo\- * *|rum,|O be-|a- ta Tri\-|* ni- tas,|O be-|
 C2"^," C2 (B,3 A,/G,/ | C2) D2 E4 | z2!f! E4 E2 | F8 | (E4!>(! A4)!>)! |"^rit." G6 G2 | %28
w: a- ta Tri\- * *|* ni- tas,|O be-|a-|ta\- *|Tri- ni\-|
!p! !fermata!C8 |] %29
w: tas.|
V:3
!mf!!<(! c6 (f2-!<)! |"^," f2!>(! ed e4)!>)! | d8 |!f! e6 f2 | (B3 c _d4 | %5
w: Ti- bi\-||laus|ti- bi|glo\- * *|
[M:4/4][K:treble-8]!>(! B3 B c4!>)! |!mf! f4"^,"!<(! e2 =d2-!<)! | d2 e2 c4- | c4 (B4 | %9
w: * ri- a,|ti- bi gra\-|* ti- a\-|* rum|
"^," e4)!>(! d2 B2!>)! |"^," c2!p! c2 e2 d2 | e2 e4 c2 |"^," e2 dc d4) |"^," c2!f! c2 e2 d2 | %14
w: * ac- ti-|o in sae- cu-|la sae- cu-|lo\- * * *|rum, in sae- cu-|
 (edcd e2) e2- | e2 e2 (f2 ed |"^," efgf ed!>(! c2) | =B8!>)! |"^,"!p! c4!<(! G4 | c4!<)! c4 | %20
w: la- * * * * sae\-|* cu- lo\- * *||rum,|O be-|a- ta|
!f! _d3 d c4 |"^,"!mf! B4 A4 | G6 B2 | A3 A B4- |"^," B4!f! c4 | _d4 c4- | c4!>(! c4-!>)! | %27
w: Tri- ni- tas,|O be-|a- ta|Tri- ni- tas,|* O|be- a\-|* ta|
"^,""^rit." c4 c3 c |!p! !fermata!=A8 |] %29
w: * Tri- ni\-|tas.|
V:4
!mf!!<(! F,8!<)! |!>(! C8!>)! | G,8 |!f! (C3 B, A,G, F,2) |"^," E,4 (_D,4 | %5
w: Ti-|bi|laus,|ti\- * * * *|bi glo\-|
[M:4/4]!>(! E,3 E, A,4!>)! |!mf! (F,4!<(! G,3 A,!<)! | B,2)"^," E,2 F,2 C,2 | A,4"^," G,2 E,2- | %9
w: * ri- a,|ti\- * *|* bi gra- ti-|a- rum ac\-|
 E,F,G,A,!>(! B,2) G,2!>)! | F,2!p! F,2 C2 =B,2 | C4 z2 F,2 |!<(! (E,F,G,A,!<)! _B,2) G,2 | %13
w: * * * * * ti-|o in sae- cu-|la, in|sae\- * * * * cu-|
"^," A,2!f! C2 C2 B,2 |"^," C2 A,4 E,2 |"^," (A,3 G, F,G,A,B, |"^," C4 C,4) | G,8 | %18
w: la, in sae- cu-|la sae- cu-|lo\- * * * * *||rum,|
 z2!p! C4!<(! B,2 | (A,3 G,!<)! F,2) F,2 |!f! _D,3 D, A,4 |!mf!"^," E,4 C,4 | C,4 G,4 | %23
w: O be-|a\- * * ta|Tri- ni- tas,|O be-|a- ta|
 F,3 F, E,4- |"^," E,4!f! A,4 | F,8 |!>(! C,4!>)! C,4 |"^rit." C,6 C,2 |!p! !fermata!F,8 |] %29
w: Tri- ni- tas,|* O|be-|a- ta|Tri- ni\-|tas.|

